X: 3555
T: Big Papi
R: reel
M: 4/4
K: Dmajor
AddB AFDF|E2EF GABe|defd efdB|ABdA Bgfe|
d2dB AFDF|E2EF GABe|defd efdB|1 ABde d2dB:|2 ABde d2dg||
|:fa a2 fadf|eA A2 efge|fadf adef|eA A2 ABde|
fa a2 fadf|eA A2 efge|fadf efdB|1 ABde d2dg:|2 ABde d2dB||

